assets/bank-tab/Asset/Shopping/Bag.svg

<svg width="24" height="24" viewBox="0 0 24 24" fill="none" xmlns="http://www.w3.org/2000/svg">
<path d="M12.0014 2C14.2104 2.00014 16.0014 3.79095 16.0014 6H18.2358C19.2444 6.0001 20.0951 6.75116 20.2202 7.75195L21.4389 17.5039C21.7373 19.8913 19.8761 21.9999 17.4702 22H6.53268C4.12671 22 2.26457 19.8913 2.56295 17.5039L3.7817 7.75195C3.90681 6.7511 4.75841 6 5.76706 6H8.00143C8.00143 3.79086 9.79229 2 12.0014 2ZM15.4477 9.10547C14.9538 8.8585 14.3529 9.05883 14.1059 9.55273C13.2384 11.2878 10.7626 11.2877 9.89499 9.55273C9.64803 9.05883 9.04713 8.85864 8.55319 9.10547C8.05921 9.35246 7.85893 9.95329 8.10592 10.4473C9.71056 13.6563 14.2904 13.6564 15.895 10.4473C16.1419 9.95338 15.9415 9.35251 15.4477 9.10547ZM12.0014 4C10.8969 4 10.0014 4.89543 10.0014 6H14.0014C14.0014 4.89552 13.1059 4.00014 12.0014 4Z" fill="#83A2C2"/>
</svg>

<svg xmlns="http://www.w3.org/2000/svg" width="24" height="24" fill="none" viewBox="0 0 24 24"><path fill="#83a2c2" d="M12.001 2a4 4 0 0 1 4 4h2.235a2 2 0 0 1 1.984 1.752l1.219 9.752A4 4 0 0 1 17.47 22H6.533a4 4 0 0 1-3.97-4.496l1.219-9.752A2 2 0 0 1 5.767 6h2.234a4 4 0 0 1 4-4m3.447 7.105a1 1 0 0 0-1.342.448c-.868 1.735-3.343 1.735-4.211 0a1 1 0 0 0-1.79.894c1.606 3.21 6.185 3.21 7.79 0a1 1 0 0 0-.447-1.342M12 4a2 2 0 0 0-2 2h4a2 2 0 0 0-2-2"/></svg>
